X:1
T:The End of the Road
T:The End of the Road
T:Elton Menno Roth
T:Lizzie De Armond, 1920
T:Public Domain Courtesy of the Cyber Hymnal™
T:Public Domain Courtesy of the Cyber Hymnal™
C:Elton Menno Roth
Z:Public Domain
Z:Courtesy of the Cyber Hymnal™
%%score ( 1 2 ) ( 3 4 )
L:1/8
Q:1/4=110
M:4/4
K:Ab
V:1 treble 
V:2 treble 
V:3 bass 
V:4 bass 
V:1
 [CA]>[CB] | [Ec]2 [Ec]>[EA] [DB]2 [DB]>[DG] | [CA]2 [DA]2 [CE]2 [A,C]2 | %3
w: 1.~When I|come to the end of the|long, long road, The|
w: 2.~Look- ing|back o’er the years that were|hard and drear, The|
w: 3.~When I|come to the end of the|long, long road, And|
 [CE]2 [CE]>[CE] [CF]2 [CA]2 | G6 [DE]>[DE] | [Ed]2 [Ed]>[EB] [Ec]2 [_Gc]>[Gc] | %6
w: sha- dows will flee a-|way, And I’ll|stand in the glor- i- ous|
w: hand of the Christ I’ll|see; While my|heart will go forth with a|
w: tri- als will all be|past, I shall|look in the face of my|
 [FB]2 [FB]2 [DF]2 [DF]2 | [=DA]2 [DB]>[DB] [Dc]2 [DB]2 | B6 ||"^Refrain" [CA]>[DB] | %10
w: light of God, Where|dwell- eth e- ter- nal|day.||
w: song of praise, Be-|cause of His love for|me.|When I|
w: dear- est Friend, Safe|home in His heav’n at|last.||
 [Ec]2 [Ec]>[=D=B] [Ec]3 [F=d] | [Ec]2 [Ec]>[DB] [CA]2 [_Gc]>[Gc] | [Fd]2 [Fd]>[Fd] [FA]2 [_FB]2 | %13
w: |||
w: come to the end, the|end of the road, To the|land of e- ter- ni-|
w: |||
 [Ec]6 [Ec]>[Ed] | [Ae]2 [Ae]>[A=d] [Ae]3 [Af] |"^riten." [Ae]2 [Ec]2 !fermata![=DA]3 [DB] | %16
w: |||
w: ty, When I|come to the end of|life’s long road, The|
w: |||
 [Ec]2 [Ec]>[CA] [DB]2 [DB]2 | [CA]6 |] %18
w: ||
w: face of my Lord I’ll|see.|
w: ||
V:2
 x2 | x8 | x8 | x8 | (D2 D2 D2) x2 | x8 | x8 | x8 | (E2 =D2 _D2) || x2 | x8 | x8 | x8 | x8 | x8 | %15
 x8 | x8 | x6 |] %18
V:3
 [A,,E,]>[A,,E,] | [A,,A,]2 [A,,A,]>[C,A,] [E,G,]2 [E,G,]>[E,B,] | %2
w: ~ ~|~ ~ ~ ~ ~ ~|
 [A,,A,]2 [A,,F,]2 [A,,A,]2 [A,,E,]2 | [A,,A,]2 [A,,A,]>[A,,A,] [A,,A,]2 [A,,E,]2 | %4
w: ~ ~ ~ ~|~ ~ ~ ~ ~|
 ([B,,E,]2 [B,,E,]2 [E,B,]2) [E,G,]>[E,G,] | [E,B,]2 [E,B,]>[E,G,] A,2 A,>A, | %6
w: ~ * * ~ ~|~ ~ ~ ~ ~ ~|
 [D,D]2 [D,D]2 [D,A,]2 [D,A,]2 | [B,,A,]2 [B,,A,]>[B,,A,] [B,,A,]2 [B,,A,]2 | %8
w: ~ ~ ~ ~|~ ~ ~ ~ ~|
 ([E,G,]2 [F,A,]2 !fermata![E,G,]2) || [A,,E,]>[A,,E,] | [A,,A,]4 [A,,A,]3 [D,A,] | %11
w: ~ * *|When I|come to the|
 [E,A,]2 [E,A,]>[E,G,] [A,,E,]2 [A,,A,]>[A,,A,] | [D,A,]4 [D,D]2 [D,A,]2 | %13
w: ~ ~ ~ ~ To the|land of e-|
 [A,,A,]2 [A,,A,]2 [A,,A,]2 A,>[A,B,] | [A,C]2 [A,C]>[A,=B,] [A,C]3 [D,D] | %15
w: ter- ni- ty, * *||
 [E,C]2 [G,A,]2 !fermata![F,B,]3 [F,A,] | [E,A,]2 [E,A,]>[E,A,] [E,G,]2 [E,G,]2 | [A,,A,]6 |] %18
w: |||
V:4
 x2 | x8 | x8 | x8 | x8 | x4 A,2 A,>A, | x8 | x8 | x6 || x2 | x8 | x8 | x8 | x6 A,3/2 x/ | x8 | %15
 x8 | x8 | x6 |] %18

